X:1
T:Si con sua Cetr'Orpheo II
T:Jhan Gero
T:Source : Trium vocum cantiones---Nürnberg---J.Petreius---1541. Editor : André Vierendeels (15/04/16).
T:Notes : Original clefs : C3, C4, F4 Editorial accidentals above the staf Original note values have been halved
T:Si con sua Cetr'Orpheo II
T:©
T:©
T:©
C:Jhan Gero
Z:©
%%score [ 1 2 3 ]
L:1/8
Q:1/4=80
M:2/2
K:F
V:1 treble-8 nm="Tenor 1" snm="T 1"
V:2 treble-8 nm="Tenor 2" snm="T 2"
V:3 bass nm="Bass" snm="B"
V:1
 f4 f2 f2 | e4 d4 | c4 d4 | d2 c2 B4 | A8 | c4 d4- | d2 e2 f3 e | d2 c2 B4 | A4 c4 | B2 A4 G2 | %10
w: Si con sua|Ce- tre'Or-|phe- o|mul- ci Plu-|to-|ne in|_ ren- der gli|l'a- ma- *|ta, l'a-|ma- * *|
 A8 | f4 f2 f2 | e4 d4 | c4 c2 c2 | c2 c2 c2 c2 | d6 c2 | c2 B2 A4 | G4 c4 | c2 c2 A2 B2 | %19
w: ta,|et l'al- tro|con gran|cu- ra can-|tan- do fe- ce|le The-|ba- ne mu-|ra, con|un su- a- ve|
 c2 c2 dcBA | G2 F2 G4 | F4 f4 | e4 d4 | c4 f4 | f2 f2 e2 d2- | d2 c2 d4 | f4 e4 | d4 c4 | %28
w: ba- so fa _ _ _|_ mia di-|va, l'al-|ma mo-|rir et|quel- la tor- nar|_ vi- va,|l'al- ma|mo- rir|
 f4 f2 f2 |"^#" e2 d4 c2 | d8 |] %31
w: et quel- la|tor- nar vi-|va.|
V:2
 A4 A2 A2 | G4 F4 | E2 E2 D3 C | DE F4 E2 | F4 C4 | F6 F2 | G4 F4 | G2 A4 G2 | A6 G2 | F2 E2 D4 | %10
w: Si con sua|Ce- tre'Or-|phe- o mul- ci|Plu- * to- *|ne, in|ren- der|gli l'a-|ma- ta, in|ren- der|gli l'a- ma-|
 E8 | A4 A2 A2 | G4 F4 | E4 E2 A2 | A2 A2 G2 A2 | B6 G2 | A2 G2 F4 | E4 G4 | G2 G2 F2 F2 | %19
w: ta,|et l'al- tro|con gran|cu- ra can-|tan- do fe- ce|le The-|ba- ne mu-|ra, con|un so- a- ve|
 G2 A2 BAGF | E2 F4 E2 | F4 A4 | G4 G4 | E4 F4 | F2 F2 GF ED | E4 D4 | A4 G4 | G4 E4 | A4 A2 A2 | %29
w: ba- so fa _ _ _|_ mai di-|va, l'al-|ma mo-|rir et|quel- la tor- * nar _|vi- va,|l'al- ma|mo- rir|et quel- la|
 G2 F2 E4 | D8 |] %31
w: tor- nar vi-|va.|
V:3
 F,4 F,2 F,2 | C,4 D,4 | A,,4 B,,4 | B,,2 A,,2 G,,4 | F,,8 | F,,4 B,,4- | B,,2 C,2 D,4 | %7
w: Si con sua|Ce- tre'Or-|phe- o|mul- ci Plu-|to-|ne in-|* ren- der,|
 z2 C,2 D,2 E,2 | F,6 E,2 | D,2 C,2 B,,4 | A,,8 | F,,4 F,,2 F,,2 | C,4 D,4 | A,,4 A,,2 F,2 | %14
w: in ren- der|gli l'a-|ma- * *|ta,|et l'al- tro|con gran|cu- ra can-|
 F,2 F,2 E,2 F,2 | B,,6 C,2 | F,,2 G,,2 A,,2 B,,2 | C,4 C,4 | C,2 C,2 D,2 D,2 | C,2 C,2 B,,2 B,,2 | %20
w: tan- do fe- ce|le The-|ba- ne mu- *|ra, con|un so- a- ve|ba- so fa- mi-|
 C,2 D,2 C,4 | F,,4 F,,4 | G,,4 G,,4 | A,,4 D,4 | D,2 D,2 C,2 B,,2 | A,,4 B,,4 | F,,4 G,,4 | %27
w: a di- *|va, l'al-|mma mo-|rir et|quel- la tor- nar|vi- va,|l'al- ma|
 G,,4 A,,4 | F,,4 F,,2 F,,2 | C,2 D,2 A,,4 | D,8 |] %31
w: mo- rir|et quel- la|tor- nar vi-|va.|

